Flat-Remix-Dark/apps/scalable/gnome-todo.svg

<svg xmlns="http://www.w3.org/2000/svg" width="384pt" height="384pt" version="1.1" viewBox="0 0 384 384"> <defs> <linearGradient id="linear0" x1="20" x2="20" y1="18" y2="38" gradientTransform="matrix(11.826586,0,0,11.826586,-71.362673,-113.27172)" gradientUnits="userSpaceOnUse"> <stop offset="0" style="stop-color:rgb(100.000%,100.000%,100.000%)"/> <stop offset="1" style="stop-color:rgb(100.000%,100.000%,100.000%)"/> </linearGradient> <linearGradient id="linear1" x1="165.426" x2="991.256" y1="-112.307" y2="-451.703" gradientTransform="matrix(0.75,0,0,0.75,0,348)" gradientUnits="userSpaceOnUse"> <stop offset="0" style="stop-color:rgb(16.862%,38.431%,75.294%)"/> <stop offset="1" style="stop-color:rgb(16.862%,38.431%,75.294%);stop-opacity:0"/> </linearGradient> </defs> <g> <path style="fill:url(#linear0)" d="M 61.09375 75.953125 C 58.976562 75.953125 56.964844 76.292969 54.996094 76.765625 C 43.566406 79.511719 35.078125 89.675781 35.078125 101.972656 L 35.078125 310.121094 C 35.078125 324.535156 46.679688 336.136719 61.09375 336.136719 L 269.242188 336.136719 C 283.65625 336.136719 295.261719 324.535156 295.261719 310.121094 L 295.261719 101.972656 C 295.261719 89.675781 286.773438 79.511719 275.339844 76.765625 C 273.324219 76.53125 271.328125 75.953125 269.242188 75.953125 Z M 61.09375 75.953125"/> <path style="fill:rgb(0%,0%,0%)" d="M 46.902344 293.160156 L 46.902344 300.660156 C 46.902344 313.761719 57.453125 324.3125 70.554688 324.3125 L 259.78125 324.3125 C 272.886719 324.3125 283.433594 313.761719 283.433594 300.660156 L 283.433594 293.160156 C 283.433594 306.261719 272.886719 316.8125 259.78125 316.8125 L 70.554688 316.8125 C 57.453125 316.8125 46.902344 306.261719 46.902344 293.160156 Z M 46.902344 293.160156"/> <path style="fill:rgb(21.960%,23.529%,29.019%)" d="M 70.554688 64.128906 C 44.347656 64.128906 23.25 85.226562 23.25 111.433594 L 23.25 300.660156 C 23.25 326.867188 44.347656 347.964844 70.554688 347.964844 L 259.78125 347.964844 C 285.988281 347.964844 307.089844 326.867188 307.089844 300.660156 L 307.089844 111.433594 C 307.089844 85.226562 285.988281 64.128906 259.78125 64.128906 Z M 70.554688 87.78125 L 259.78125 87.78125 C 272.886719 87.78125 283.433594 98.328125 283.433594 111.433594 L 283.433594 300.660156 C 283.433594 313.761719 272.886719 324.3125 259.78125 324.3125 L 70.554688 324.3125 C 57.453125 324.3125 46.902344 313.761719 46.902344 300.660156 L 46.902344 111.433594 C 46.902344 98.328125 57.453125 87.78125 70.554688 87.78125 Z M 70.554688 87.78125"/> <path style="fill:url(#linear1)" d="M 333.640625 36.414062 C 328.464844 37.53125 323.695312 40.445312 320.335938 44.542969 L 171.765625 214.550781 L 118.546875 161.332031 C 109.644531 152.429688 93.445312 152.429688 84.542969 161.328125 C 75.640625 170.230469 75.640625 186.429688 84.546875 195.332031 L 155.503906 266.292969 L 173.984375 284.03125 L 190.246094 264.8125 L 355.816406 75.589844 C 369.238281 60.976562 353.078125 32.425781 333.640625 36.414062 Z M 333.640625 36.414062"/> </g> </svg>

<svg width="512" height="512" version="1.1" viewBox="0 0 384 384" xmlns="http://www.w3.org/2000/svg"><defs><linearGradient id="b" x1="20" x2="20" y1="18" y2="38" gradientTransform="matrix(11.827 0 0 11.827 -71.363 -113.27)" gradientUnits="userSpaceOnUse"><stop stop-color="#fff" offset="0"/><stop stop-color="#fff" offset="1"/></linearGradient><linearGradient id="a" x1="165.43" x2="991.26" y1="-112.31" y2="-451.7" gradientTransform="matrix(.75 0 0 .75 0 348)" gradientUnits="userSpaceOnUse"><stop stop-color="#2a61bf" offset="0"/><stop stop-color="#2a61bf" stop-opacity="0" offset="1"/></linearGradient></defs><path d="m61.094 75.953c-2.1172 0-4.1289 0.33984-6.0977 0.8125-11.43 2.7461-19.918 12.91-19.918 25.207v208.15c0 14.414 11.602 26.016 26.016 26.016h208.15c14.414 0 26.02-11.602 26.02-26.016v-208.15c0-12.297-8.4883-22.461-19.922-25.207-2.0156-0.23438-4.0117-0.8125-6.0976-0.8125z" fill="url(#b)"/><path d="m70.555 64.129c-26.207 0-47.305 21.098-47.305 47.305v189.23c0 26.207 21.098 47.305 47.305 47.305h189.23c26.207 0 47.309-21.098 47.309-47.305v-189.23c0-26.207-21.102-47.305-47.309-47.305zm0 23.652h189.23c13.105 0 23.652 10.547 23.652 23.652v189.23c0 13.102-10.547 23.652-23.652 23.652h-189.23c-13.102 0-23.652-10.551-23.652-23.652v-189.23c0-13.105 10.551-23.652 23.652-23.652z" fill="#353a4a"/><path d="m333.64 36.414c-5.1758 1.1172-9.9453 4.0312-13.305 8.1289l-148.57 170.01-53.219-53.219c-8.9024-8.9023-25.102-8.9023-34.004-4e-3 -8.9023 8.9024-8.9023 25.102 0.0039 34.004l70.957 70.961 18.48 17.738 16.262-19.219 165.57-189.22c13.422-14.613-2.7383-43.164-22.176-39.176z" fill="url(#a)"/><path transform="scale(.75)" d="m62.537 390.88v10c0 17.469 14.066 31.535 31.535 31.535h252.3c17.474 0 31.537-14.066 31.537-31.535v-10c0 17.469-14.063 31.535-31.537 31.535h-252.3c-17.469 0-31.535-14.066-31.535-31.535z" fill="#020203" opacity=".3" stroke-width="1.3333"/></svg>
